X: 32580
T: Planxty Irwin
R: waltz
M: 3/4
K: Gmajor
|:d2|g4 f2|e3f g2|d4 c2|B3A G2|c4 A2|B3c d2|F2 G2 A2|A4 d2|
g4 f2|e3f g2|d4 c2|B3A G2|c4 A2|B3c d2|G2 A2 F2|G4:|
|:d2|g3 g g2|g2 f g3|a3 b a2|a2 f2 d2|b4 b2|a3 b g2|f3 g e2|d3e f2|
g4 f2|e3 f g2|d4 c2|B3A G2|c4 A2|B3 c d2|G2 A2 F2|G4:|

